suite-common/icons/assets/icons/swap.svg

<svg xmlns="http://www.w3.org/2000/svg" xml:space="preserve" fill="none" viewBox="0 0 24 24">
  <path fill="#000" fill-rule="evenodd" d="M8.66 3.056c-.441.11-.83.425-1.017.824-.095.203-.104.27-.116.87-.013.604-.008.663.074.833.27.557 1.063.533 1.324-.041.057-.126.073-.262.074-.612L9 4.48l5.25.01 5.25.01.01 4.87.01 4.87H9.301l.548-.55c.301-.302.566-.601.589-.663.114-.304-.015-.718-.277-.891-.2-.132-.494-.161-.691-.067-.193.092-2.58 2.465-2.655 2.64A.9.9 0 0 0 6.76 15c0 .089.025.22.055.291.075.175 2.462 2.548 2.655 2.64.197.094.491.065.691-.067.262-.173.391-.587.277-.891-.023-.062-.288-.36-.588-.662l-.547-.549 5.239-.011 5.238-.011.215-.088c.316-.129.518-.284.706-.538.297-.403.279-.034.279-5.774V4.18l-.096-.24c-.132-.328-.496-.692-.824-.824l-.24-.096-5.48-.007c-4.269-.005-5.524.004-5.68.043m5.372 2.984c-.386.116-.615.597-.47.987.023.062.288.36.588.662l.547.549-5.239.011-5.238.011-.23.093a1.6 1.6 0 0 0-.915.947c-.045.132-.055 1.069-.055 5.34v5.18l.096.24c.132.328.496.692.824.824l.24.096 5.42.012c3.946.009 5.485 0 5.659-.034a1.55 1.55 0 0 0 1.098-.838c.095-.203.104-.27.116-.87.013-.604.008-.663-.074-.833-.27-.557-1.063-.533-1.324.041-.057.126-.073.262-.074.612l-.001.45-5.25-.01-5.25-.01-.01-4.87-.01-4.87h10.219l-.548.55c-.301.303-.566.601-.589.663-.114.304.015.718.277.891.2.132.494.161.691.067.193-.092 2.58-2.465 2.655-2.64a.83.83 0 0 0 0-.582c-.076-.178-2.463-2.55-2.655-2.638a.67.67 0 0 0-.498-.031"/>
</svg>

<svg xmlns="http://www.w3.org/2000/svg" xml:space="preserve" fill="none" viewBox="0 0 24 24"><path d="M8.660 3.056 C 8.219 3.166,7.830 3.481,7.643 3.880 C 7.548 4.083,7.539 4.150,7.527 4.750 C 7.514 5.354,7.519 5.413,7.601 5.583 C 7.871 6.140,8.664 6.116,8.925 5.542 C 8.982 5.416,8.998 5.280,8.999 4.930 L 9.000 4.480 14.250 4.490 L 19.500 4.500 19.510 9.370 L 19.520 14.240 14.411 14.240 L 9.301 14.240 9.849 13.690 C 10.150 13.388,10.415 13.089,10.438 13.027 C 10.552 12.723,10.423 12.309,10.161 12.136 C 9.961 12.004,9.667 11.975,9.470 12.069 C 9.277 12.161,6.890 14.534,6.815 14.709 C 6.785 14.780,6.760 14.911,6.760 15.000 C 6.760 15.089,6.785 15.220,6.815 15.291 C 6.890 15.466,9.277 17.839,9.470 17.931 C 9.667 18.025,9.961 17.996,10.161 17.864 C 10.423 17.691,10.552 17.277,10.438 16.973 C 10.415 16.911,10.150 16.613,9.850 16.311 L 9.303 15.762 14.542 15.751 L 19.780 15.740 19.995 15.652 C 20.311 15.523,20.513 15.368,20.701 15.114 C 20.998 14.711,20.980 15.080,20.980 9.340 L 20.980 4.180 20.884 3.940 C 20.752 3.612,20.388 3.248,20.060 3.116 L 19.820 3.020 14.340 3.013 C 10.071 3.008,8.816 3.017,8.660 3.056 M14.032 6.040 C 13.646 6.156,13.417 6.637,13.562 7.027 C 13.585 7.089,13.850 7.387,14.150 7.689 L 14.697 8.238 9.458 8.249 L 4.220 8.260 3.990 8.353 C 3.559 8.527,3.218 8.880,3.075 9.300 C 3.030 9.432,3.020 10.369,3.020 14.640 L 3.020 19.820 3.116 20.060 C 3.248 20.388,3.612 20.752,3.940 20.884 L 4.180 20.980 9.600 20.992 C 13.546 21.001,15.085 20.992,15.259 20.958 C 15.736 20.867,16.157 20.546,16.357 20.120 C 16.452 19.917,16.461 19.850,16.473 19.250 C 16.486 18.646,16.481 18.587,16.399 18.417 C 16.129 17.860,15.336 17.884,15.075 18.458 C 15.018 18.584,15.002 18.720,15.001 19.070 L 15.000 19.520 9.750 19.510 L 4.500 19.500 4.490 14.630 L 4.480 9.760 9.589 9.760 L 14.699 9.760 14.151 10.310 C 13.850 10.613,13.585 10.911,13.562 10.973 C 13.448 11.277,13.577 11.691,13.839 11.864 C 14.039 11.996,14.333 12.025,14.530 11.931 C 14.723 11.839,17.110 9.466,17.185 9.291 C 17.255 9.127,17.255 8.873,17.185 8.709 C 17.109 8.531,14.722 6.159,14.530 6.071 C 14.369 5.997,14.206 5.987,14.032 6.040 " stroke="none" fill-rule="evenodd" fill="black"></path></svg>
